packages/sources/icons/src/vitamix/package-line.svg

<svg width="16" height="16" viewBox="0 0 16 16" xmlns="http://www.w3.org/2000/svg"><path d="M1.99658 1.33002C1.63 1.33002 1.33008 1.62994 1.33008 1.99652V13.9935C1.33008 14.3601 1.63 14.66 1.99658 14.66H13.9936C14.3602 14.66 14.6601 14.3601 14.6601 13.9935V1.99652C14.6601 1.62994 14.3602 1.33002 13.9936 1.33002H1.99658ZM5.32908 2.66302V7.32852C5.32908 7.69509 5.629 7.99502 5.99558 7.99502H9.99458C10.3612 7.99502 10.6611 7.69509 10.6611 7.32852V2.66302H13.3271V13.327H2.66308V2.66302H5.32908ZM9.32808 2.66302V6.66202H6.66208V2.66302H9.32808Z"/></svg>

<svg width="16" height="16" xmlns="http://www.w3.org/2000/svg"><path d="M1.997 1.33c-.367 0-.667.3-.667.667v11.996c0 .367.3.667.667.667h11.997c.366 0 .666-.3.666-.667V1.997c0-.367-.3-.667-.666-.667H1.997Zm3.332 1.333v4.666c0 .366.3.666.667.666h3.999c.366 0 .666-.3.666-.666V2.663h2.666v10.664H2.663V2.663H5.33Zm4 0v3.999H6.661V2.663h2.666Z"/></svg>
